static/logos/flatfile-glyph-color.svg

<svg width="50" height="50" viewBox="0 0 50 50" fill="none" xmlns="http://www.w3.org/2000/svg">
<g clip-path="url(#clip0_1_2737)">
<path d="M12.3277 27.3354C11.7152 27.9479 10.9495 28.2542 10.0306 28.2542H6.89127H2.37367C1.68453 28.2542 1.14855 28.0246 0.689127 27.565C0.306279 27.1056 0 26.5696 0 25.8806V14.1654V2.37367C0 1.68453 0.306279 1.14855 0.689127 0.689127C1.14855 0.306279 1.7611 0 2.37367 0H9.41806H16.4625C17.1516 0 17.6876 0.306279 18.147 0.689127C18.6064 1.14855 18.8361 1.68453 18.8361 2.37367V11.562V19.4487C18.8361 20.291 18.5299 21.1331 17.9173 21.6692L15.1608 24.4256L12.3277 27.3354Z" fill="#3B2FC9"/>
<path d="M22.5127 12.3277C21.9 11.7152 21.5938 10.9495 21.5938 10.1072V6.89127V2.37367C21.5938 1.68453 21.9 1.14855 22.2829 0.689127C22.7423 0.306279 23.355 0 23.9675 0H35.6827H47.4744C48.1635 0 48.6996 0.306279 49.159 0.689127C49.6183 1.14855 49.8481 1.68453 49.8481 2.37367V9.41806V16.4625C49.8481 17.1516 49.5417 17.6876 49.159 18.147C48.6996 18.6064 48.1635 18.8361 47.4744 18.8361H38.286H30.3227C29.4804 18.8361 28.6383 18.5299 28.0256 17.9173L25.2692 15.1608L22.5127 12.3277Z" fill="#3B2FC9"/>
<path d="M37.5928 22.6646C38.2053 22.0521 38.9709 21.7458 39.8899 21.7458H43.0293H47.4703C48.1593 21.7458 48.6953 22.0521 49.1547 22.435C49.6143 22.8944 49.8439 23.4304 49.8439 24.1194V35.8346V47.5498C49.8439 48.239 49.5376 48.775 49.1547 49.2344C48.6953 49.6938 48.1593 49.9236 47.4703 49.9236H40.4257H33.3814C32.6922 49.9236 32.1564 49.6171 31.6968 49.2344C31.2374 48.775 31.0078 48.239 31.0078 47.5498V38.3615V30.4748C31.0078 29.6325 31.3141 28.7902 31.9266 28.2542L34.683 25.4977L37.5928 22.6646Z" fill="#3B2FC9"/>
<path d="M27.3354 37.6725C27.9479 38.285 28.2542 39.0506 28.2542 39.9696V43.1089V47.6264C28.2542 48.3156 27.9479 48.8516 27.565 49.311C27.1056 49.7704 26.5696 50.0002 25.8806 50.0002H14.1654H2.37367C1.68453 50.0002 1.14855 49.6939 0.689127 49.311C0.306279 48.8516 0 48.2392 0 47.6264V40.5821V33.5377C0 32.8485 0.306279 32.3125 0.689127 31.8531C1.14855 31.3937 1.68453 31.1639 2.37367 31.1639H11.562H19.4487C20.291 31.1639 21.1331 31.4704 21.6692 32.0829L24.4256 34.8394L27.3354 37.6725Z" fill="#3B2FC9"/>
</g>
<defs>
<clipPath id="clip0_1_2737">
<rect width="50" height="50" fill="white"/>
</clipPath>
</defs>
</svg>

<svg xmlns="http://www.w3.org/2000/svg" width="64" height="64" fill="none" viewBox="0 0 50 50"><g fill="#3B2FC9" clip-path="url(#a)"><path d="M12.328 27.335c-.613.613-1.378.92-2.297.92H2.374c-.69 0-1.225-.23-1.685-.69C.306 27.105 0 26.57 0 25.881V2.374c0-.69.306-1.225.69-1.685C1.148.306 1.76 0 2.373 0h14.088c.69 0 1.226.306 1.685.69.46.459.69.995.69 1.684v17.075c0 .842-.307 1.684-.92 2.22l-2.756 2.757-2.833 2.91ZM22.513 12.328a3.066 3.066 0 0 1-.92-2.22V2.373c0-.69.307-1.225.69-1.685C22.743.306 23.355 0 23.967 0H47.474c.69 0 1.226.306 1.685.69.46.459.69.995.69 1.684v14.088c0 .69-.307 1.226-.69 1.685-.46.46-.995.69-1.685.69H30.323c-.843 0-1.685-.307-2.297-.92l-2.757-2.756-2.756-2.833ZM37.593 22.665c.612-.613 1.378-.92 2.297-.92h7.58c.69 0 1.225.307 1.685.69.46.46.689.995.689 1.684V47.55c0 .689-.306 1.225-.69 1.684-.459.46-.995.69-1.684.69H33.381c-.689 0-1.225-.307-1.684-.69-.46-.459-.69-.995-.69-1.684V30.475c0-.843.307-1.685.92-2.22l2.756-2.757 2.91-2.833ZM27.335 37.672c.613.613.92 1.379.92 2.298V47.626c0 .69-.307 1.226-.69 1.685-.46.46-.995.69-1.684.69H2.374c-.69 0-1.225-.307-1.685-.69C.306 48.851 0 48.239 0 47.626V33.538c0-.69.306-1.225.69-1.685.459-.46.995-.69 1.684-.69h17.075c.842 0 1.684.307 2.22.92l2.757 2.756 2.91 2.834Z"/></g><defs><clipPath id="a"><path fill="#fff" d="M0 0h50v50H0z"/></clipPath></defs></svg>
